X:1
T:Release, CMD
T:Release, CMD
T:Danish Melody
T:Public Domain Courtesy of the Cyber Hymnal™
C:Danish Melody
Z:Public Domain
Z:Courtesy of the Cyber Hymnal™
%%score ( 1 2 ) 3
L:1/8
Q:1/4=98
M:3/4
K:Eb
V:1 treble 
V:2 treble 
V:3 bass 
V:1
 [EB]2 | [Ec][EB] [EG]2 [EB]2 | [GB][FA] [DF]2 [DG]2 | EE [DF]2 [FB]2 | [EG]4 [EB]2 | %5
 [Ec][EB] [EG]2 [EB]2 | [GB][FA] [DF]2 [EB]2 | E[EA] [EG]2 [DF]2 | E4 [EG]2 | %9
 [DF][EG] [EA]2 [EB]2 | [Ec][Ec] [EB]2 [Ge]2 | [Fd][Gc] [FB]2 [F=A]2 | [DB]4 [EB]2 | %13
 [Ec][EB] [EG]2 [EB]2 | [GB][FA] [DF]2 [EB]2 | E[EA] [EG]2 [DF]2 | [B,E]4 |] %17
V:2
 x2 | x6 | x6 | EE x4 | x6 | x6 | x6 | E x5 | E4 x2 | x6 | x6 | x6 | x6 | x6 | x6 | E x5 | x4 |] %17
V:3
 [E,G,]2 | [E,A,][E,G,] [E,B,]2 [E,G,]2 | [B,,B,][B,,B,] [B,,B,]2 [=B,,G,]2 | %3
 [C,G,][C,G,] [B,,B,]2 [D,B,]2 | [E,B,]4 [E,G,]2 | [E,A,][E,G,] [E,B,]2 [E,G,]2 | %6
 [B,,B,][B,,B,] [B,,B,]2 [G,,B,]2 | [C,G,][A,,C] [B,,B,]2 [B,,A,]2 | [E,G,]4 [E,B,]2 | %9
 [B,,B,][E,B,] [C,A,]2 [E,G,]2 | [A,,A,][C,A,] [E,G,]2 [C,C]2 | [D,B,][E,E] [F,D]2 [F,C]2 | %12
 [B,,B,]4 [E,G,]2 | [E,A,][E,G,] [E,B,]2 [E,G,]2 | [B,,B,][B,,B,] [B,,B,]2 [G,,B,]2 | %15
 [C,G,][A,,C] [B,,B,]2 [B,,A,]2 | [E,G,]4 |] %17

